X:1
T:Yip-I-Addy-I-Ay
M:3/4
L:1/4
K:C
 G| G E C| G E C| G E C| G E G| c B c| d c A| G3-| G z A| A F D| A F D|\
 A F D| A F E| D ^F A| c B A| G3-| G z| G| G E C| G E C| G E C| G E G|\
 c B c| d c B| A3-| A z A| d c B| A ^G A| c B| A| G F E| D ^F A| c B A|\
 G3-| G z2| c z G| G F E| G2 F| D3| c z G| G F E| A3-| A z2| B2 B|\
 B c ^c| d2| B| G3| c2 c| c d ^d| e c A| G3| c z G| G F E| G2 F| D2 G|\
 c G G| G F E| A3-| A ^G A| d c A| d c d| e c| A| G3| g z e| d c d|\
 c3-| c z||
